!!!OTL@@DE: Dauernde Liebe
!!!COM: Mozart, Wolfgang Amadeus
!!!ODT: 1787
!!!OMD: Andante
!!!ONB: Gedicht nach der: Auswahl neuer Lieder. Hamburg 1809
!!!ONB: Wohl schon aus den 90er Jahren
!!!LDT: 1809
!!!OCL: Erk, Ludwig
!!!GCO: Deutscher Liederschatz, Band 1
**kern	**kern	**kern
*staff3	*staff2	*staff1
*Ipiano	*Ipiano	*Ivox
=1-	=1-	=1-
*clefF4	*clefG2	*clefG2
*k[]	*k[]	*k[]
*C:	*C:	*C:
*M3/4	*M3/4	*M3/4
*MM72	*MM72	*MM72
4CC/	4c/ 4e/ 4g/	8.g/
.	.	16g/
4EE/	8c/ 8e/ 8g/L	8g/
.	8c/ 8e/ 8g/	8g/
4GG/	8c/ 8e/ 8g/	8g/
.	8c/ 8e/ 8g/J	8g/
=2	=2	=2
*	*^	*
4.C/	(8g/L	4c\ 4e\	(8g/L
.	8cc/J	.	8cc/J)
*	*v	*v	*
.	4c/ 4e/ 4g/)	4g/
8C/L	.	.
8E/	4r	4r
8C/J	.	.
=3	=3	=3
4GG/ 4G/	4B/ 4d/ 4f/	8.f/
.	.	16f/
4BB\ 4G\	8d/ 8f/L	8f/
.	8d/ 8f/	8f/
4GG/ 4G/	8e/ 8g/	8g/
.	8d/ 8f/J	8f/
=4	=4	=4
4.C\ 4.G\	(4d/ 4f/	(4f/
.	4c/) 4e/	4e/)
8C/L	.	.
8E/	4r	4r
8C/J	.	.
=5	=5	=5
4D\	4c/ 4f#/	8.f#/
.	.	16f#/
8D\ 8A\L	8c/ 8f#/L	8f#/
8D\ 8A\	8c/ 8f#/	8f#/
8D\ 8A\	8c/ 8f#/	8f#/
8D\ 8A\J	8c/ 8f#/J	8f#/
=6	=6	=6
4G\	8.B/ 8.g/L	8.g/L
.	16c/ 16a/Jk	16a/Jk
8GG\L	4d/ 4b/	4b\
8G\	.	.
8G\	4r	4r
8G\J	.	.
=7	=7	=7
4C/	8.e/ 8.g/ 8.cc/L	8.cc\
.	16c/ 16e/ 16a/Jk	16a/
4D\	4B/ 4d/ 4g/	8g/
.	.	8g/
*	*^	*
4DD/ 4D/	8f#/L	4c\	8f#/
.	8a/J	.	8a/
*	*v	*v	*
=8	=8	=8
4G\	4c/ (4a/	(4a/
4D\	&(4B/&) 4g/)	4g/)
4GG/	4r	4r
=9	=9	=9
2GG/ 2G/	4d/ 4fn/ 4b/	8.b\
.	.	16b\
.	8d/ 8f/ 8b/L	8b\
.	8d/ 8f/ 8b/	8b\
4GG/ 4G/	8d/ 8f/ 8b/	8b\
.	8d/ 8f/ 8b/J	8b\
=10	=10	=10
*	*^	*
4.C\ 4.G\	(4cc/	4e\	(4cc\
.	4g/)	4g/	4g/)
8C/L	.	.	.
8E/	4r	4e\	4r
8C/J	.	.	.
*	*v	*v	*
=11	=11	=11
2GG/ 2G/	4B/ 4d/ 4f/	8.f/
.	.	16f/
.	8B/ 8d/ 8f/L	8f/
.	8B/ 8d/ 8f/J	8f/
4GG/ 4G/	8.e/ 8.g/L	8.g/
.	16d/ 16f/Jk	16f/
=12	=12	=12
4.C\ 4.G\	4d/ (4f/	(4f/
.	&(4c/&) 4e/)	4e/)
8C/L	.	.
8C/	4r	4r
8C/J	.	.
=13	=13	=13
4FF/	8.f/ 8.a/L	8.a/
.	16g/ 16b/Jk	16b\
8F\L	8a\ 8cc\L	8cc\
8F\	8a\ 8cc\	8cc\
8F\	8a\ 8cc\	8cc\
8F\J	8a\ 8cc\J	8cc\
=14	=14	=14
*	*^	*
8.E\L	8.cc/L	2g\	(8.cc\L
16D\Jk	16b/ 16dd/Jk	.	16dd\Jk
8C/L	4cc/ 4ee/	.	4ee\)
8C/	.	.	.
*	*v	*v	*
8E/	4r	4r
8C/J	.	.
=15	=15	=15
4F\ 4A\	8.a\ 8.cc\ 8.ff\L	8.ff\
.	16f\ 16a\ 16dd\Jk	16dd\
4G\	4e/ 4g/ 4cc/	8cc\
.	.	8cc\
4GG/ 4G/	8d/ 8b/L	8b\
.	8f/ 8dd/J	8dd\
2C\ 2G\	(4f/ 4dd/	(4dd\
.	4e/ 4cc/)	4cc\)
4r	4r	4r
==	==	==
*-	*-	*-
!!!ENC: Craig Stuart Sapp
!!!END: 2004/06/28/
!!!EFL: 008/651
